!!!OTL: Quartett in B für 2 Violinen, Viola und Violoncello, 3. Satz, KV 458/03
!!!system-decoration: [(s1,s2,s3,s4)]
**kern	**kern	**kern	**kern	**dynam	**kern	**kern	**kern	**kern	**dynam	**kern	**kern	**kern	**kern	**dynam	**kern	**kern	**kern	**kern	**dynam
*part4	*part4	*part4	*part4	*part4	*part3	*part3	*part3	*part3	*part3	*part2	*part2	*part2	*part2	*part2	*part1	*part1	*part1	*part1	*part1
*staff16	*staff15	*staff14	*staff13	*	*staff12	*staff11	*staff10	*staff9	*	*staff8	*staff7	*staff6	*staff5	*	*staff4	*staff3	*staff2	*staff1	*
*I"Violoncello	*	*	*	*	*I"Viola	*	*	*	*	*I"Violino II	*	*	*	*	*I"Violino I	*	*	*	*
*clefF4	*	*clefC3	*	*clefG2	*	*clefG2	*
*k[b-e-a-]	*	*k[b-e-a-]	*	*k[b-e-a-]	*	*k[b-e-a-]	*
*M4/4	*	*M4/4	*	*M4/4	*	*M4/4	*
(4E-y	.	[4B-y	.	(4e-y	.	(4g	.
8DL)	.	8B-y_	.	8fL)	.	8a-yL)	.
16.r	.	8r	.	16.r	.	16.r	.
32E-yJ	.	.	.	32e-yJ	.	32gJ	.
.	.	.	.	.	.	(<16qg	.
8BB-yL	.	8A-yL)	.	8dL)	.	8fL)	.
8EE-yJ	.	8GJ	.	8e-yJ	.	8e-yJ	.
4r	.	4r	.	4r	.	8r	.
.	.	.	.	.	.	(8G	.
=2	=2	=2	=2	=2	=2	=2	=2
2r	.	2r	.	2r	.	8B-yL	cresc.
.	.	.	.	.	.	8e-y	.
.	.	.	.	.	.	8g	.
.	.	.	.	.	.	8b-yJ)	.
4C	.	4E-y	.	4G	.	4ee-y	.
4D	.	4F	.	4B-y	.	4b-y	.
=3	=3	=3	=3	=3	=3	=3	=3
8E-yL	.	8B-yL	.	16.e-yLT	.	16.gLT	.
.	.	.	.	32f	.	32a-y	.
8EE-yJ	.	8e-yJ	.	8gJ	.	8b-yJ	.
4r	.	4r	.	4r	.	4r	.
8r	.	8r	.	8r	.	(4.cc	.
(8BB-y	.	(8G	.	(8en	.	.	.
4AA-y)	.	4A-y)	.	4f)	.	.	.
.	.	.	.	.	.	8cc-)	.
=4	=4	=4	=4	=4	=4	=4	=4
8r	.	8r	.	8r	.	[4b-y	.
(8AA-y	.	(8FL	.	(8dL	.	.	.
4GG)	.	8G	.	8e-	.	(16b-yL_	.
.	.	.	.	.	.	16an	.
.	.	8E-yJ)	.	8B-yJ)	.	16a-	.
.	.	.	.	.	.	16gJ)	.
8AA-y	.	8C	.	8c	.	(8f	.
8r	.	8r	.	8r	.	4a-y	.
8BB-y	.	8F	.	8A-y	.	.	.
8r	.	8r	.	8r	.	8d)	.
=5	=5	=5	=5	=5	=5	=5	=5
4EE-y	.	4E-y	.	4G	.	8e-yL	.
.	.	.	.	.	.	16r	.
.	.	.	.	.	.	(16B-yJ	.
4r	.	4r	.	4r	.	16e-yL	.
.	.	.	.	.	.	16g	.
.	.	.	.	.	.	16b-y	.
.	.	.	.	.	.	16ee-yJ)	.
(4e-y	.	[4b-y	.	(4ee-y	.	(4gg	.
8dL)	.	8b-y_	.	8ffL)	.	8aa-yL)	.
16.r	.	8r	.	16.r	.	16.r	.
32e-yJ	.	.	.	32ee-yJ	.	32ggJ	.
!!LO:LB
=6	=6	=6	=6	=6	=6	=6	=6
8B-yL	.	8a-yL)	.	8ddL)	.	8ffL)	cresc.
8E-yJ	.	8gJ	.	8ee-yJ	.	8ee-yJ	.
4r	.	4r	.	4r	.	8r	.
.	.	.	.	.	.	(8e-y	.
2r	.	2r	.	2r	.	8gL	.
.	.	.	.	.	.	8bn	.
.	.	.	.	.	.	8cc	.
.	.	.	.	.	.	8ee-yJ)	.
=7	=7	=7	=7	=7	=7	=7	=7
8C	.	16r	.	16r	.	[4gg	.
.	.	16cL	.	16e-yL	.	.	.
8r	.	16c	.	16e-y	.	.	.
.	.	16cJ	.	16e-yJ	.	.	.
8C	.	16r	.	16r	.	(16ggL_	.
.	.	16BnL	.	16dL	.	32ff	.
.	.	.	.	.	.	32een	.
8r	.	16B	.	16d	.	32ff	.
.	.	.	.	.	.	32gg	.
.	.	16BJ	.	16dJ	.	32aa-y	.
.	.	.	.	.	.	32ggJ)	.
8C	.	16r	.	16r	.	(8ggL	.
.	.	16cL	.	(16e-yL	.	.	.
8r	.	16c	.	16g)	.	8.ee-J)	.
.	.	16cJ	.	16gJ	.	.	.
8F	.	16r	.	16r	.	.	.
.	.	16A-yL	.	(16a-yL	.	(16ddL	.
8r	.	16A-y	.	16d)	.	8ffJ)	.
.	.	16A-yJ	.	16dJ	.	.	.
=8	=8	=8	=8	=8	=8	=8	=8
8G	cresc.	16r	cresc.	16r	cresc.	16ff]	cresc.
.	.	(16GL	.	(16e-yL	.	(16ccL	.
8r	.	16c)	.	16g)	.	8.ee-yJ)	.
.	.	16cJ	.	16gJ	.	.	.
8GG	.	16r	.	16r	.	.	.
.	.	(16dL	.	16fL	.	(16bnL	.
8r	.	16Bn)	.	16f	.	8ddJ)	.
.	.	16BJ	.	16fJ	.	.	.
(4C	.	16r	.	16r	.	(32ddL_	.
.	.	.	.	.	.	32ff	.
.	.	(16BL	.	(16fL	.	32ee-y	.
.	.	.	.	.	.	32dd	.
.	.	16c	.	16e-y)	.	8ccJ)	.
.	.	16B-J	.	[16e-yJ	.	.	.
4F)	.	16AnL	.	16e-yL]	.	32ccL]	.
.	.	.	.	.	.	(32b-	.
.	.	16c	.	(16e-y	.	32an	.
.	.	.	.	.	.	32b-yJ	.
.	.	16A	.	16c	.	32ccL	.
.	.	.	.	.	.	32dd	.
.	.	16FJ)	.	16AnJ)	.	32ee-y	.
.	.	.	.	.	.	32ccJ)	.
!!LO:LB
=9	=9	=9	=9	=9	=9	=9	=9
8BB-y	.	16r	.	16r	.	[4ff	.
.	.	16B-yL	.	16dL	.	.	.
8r	.	16B-y	.	16d	.	.	.
.	.	16B-yJ	.	16dJ	.	.	.
8BB-y	.	16r	.	16r	.	(32ffL_	.
.	.	.	.	.	.	32ee-y	.
.	.	16AnL	.	(16e-yL	.	32dd	.
.	.	.	.	.	.	32ccJ	.
8r	.	(16A	.	16c	.	32ddL	.
.	.	.	.	.	.	32ee-y	.
.	.	16cJ)	.	16anJ)	.	32ff	.
.	.	.	.	.	.	32ggJ)	.
8BB-y	.	16r	.	16r	.	(16.ffL	.
.	.	16dL	.	16b-yL	.	.	.
.	.	.	.	.	.	32dd)	.
8r	.	16d	.	16b-y	.	8ffJ	.
.	.	16dJ	.	16b-yJ	.	.	.
(4E-y	.	16r	.	16r	.	24r	.
.	.	.	.	.	.	(24cc'L	.
.	.	(16e-yL	.	16gL	.	.	.
.	.	.	.	.	.	24dd'J	.
.	.	16c)	.	(16g	.	24ee-y'L	.
.	.	.	.	.	.	24ff'	.
.	.	16cJ	.	16e-yJ)	.	.	.
.	.	.	.	.	.	24gg'J)	.
=10	=10	=10	=10	=10	=10	=10	=10
4F	cresc.	16r	cresc.	16r	cresc.	24r	cresc.
.	.	.	.	.	.	(24b-y'L	.
.	.	16B-yL	.	(16dL	.	.	.
.	.	.	.	.	.	24cc'J	.
.	.	(16B-y	.	16f)	.	24dd'L	.
.	.	.	.	.	.	24ee-y'	.
.	.	16dJ)	.	16fJ	.	.	.
.	.	.	.	.	.	24ff'J)	.
4F#	.	16r	.	16r	.	24r	.
.	.	.	.	.	.	(24ee-y'L	.
.	.	16AnL	.	(16cL	.	.	.
.	.	.	.	.	.	24dd'J	.
.	.	(16A	.	16e-y)	.	24cc'L	.
.	.	.	.	.	.	24b-y'	.
.	.	16cJ)	.	16e-yJ	.	.	.
.	.	.	.	.	.	24an'J)	.
4G	.	16r	.	16r	.	(16.b-yL	.
.	.	16enL	.	(16d-L	.	.	.
.	.	.	.	.	.	32ddd-J)	.
.	.	16e	.	16B-y)	.	(4ddd-y	.
.	.	16eJ	.	16B-yJ	.	.	.
4Fn)	.	16r	.	16r	.	.	.
.	.	16fL	.	(16B-yL	.	.	.
.	.	16f	.	16d-y)	.	16cccL	.
.	.	16fJ	.	16d-yJ	.	16bb-yJ)	.
!!LO:LB
=11	=11	=11	=11	=11	=11	=11	=11
.	.	.	.	.	.	(<32qaanL	.
.	.	.	.	.	.	32qbb-y	.
.	.	.	.	.	.	32qcccJ	.
(8EnL	.	16r	.	16r	.	8bb-yL)	.
.	.	(16gL	.	16d-L	.	.	.
8FJ	.	16f)	.	16d-y	.	32bb-y]	.
.	.	.	.	.	.	(32aa-	.
.	.	16fJ	.	16d-yJ	.	32gg-	.
.	.	.	.	.	.	32ffJ	.
4G-)	.	16r	.	16r	.	16eenL)	.
.	.	(16B-yL	.	(16dd-L	.	(16ee'	.
.	.	16An	.	16cc	.	16ee'	.
.	.	16B-yJ)	.	16b-yJ)	.	16ee'J)	.
(8.FL	.	(4c	.	(4an	.	[2ff	.
32G-y	.	.	.	.	.	.	.
32FJ)	.	.	.	.	.	.	.
(32E-L	.	4d-)	.	4b-y)	.	.	.
32D-	.	.	.	.	.	.	.
32C	.	.	.	.	.	.	.
32BB-yJ	.	.	.	.	.	.	.
32AAnL	.	.	.	.	.	.	.
32BB-y	.	.	.	.	.	.	.
32D-y	.	.	.	.	.	.	.
32BB-yJ)	.	.	.	.	.	.	.
=12	=12	=12	=12	=12	=12	=12	=12
(4AAn	.	(4cc	.	(4ee-y	.	(8.ffL_	.
.	.	.	.	.	.	32een	.
.	.	.	.	.	.	32ffJ)	.
4BB-y)	.	4b-y)	.	4dd-)	.	(32gg-L	.
.	.	.	.	.	.	32ff	.
.	.	.	.	.	.	32ee-	.
.	.	.	.	.	.	32dd-J	.
.	.	.	.	.	.	32ccL	.
.	.	.	.	.	.	32b-y	.
.	.	.	.	.	.	32dd-y	.
.	.	.	.	.	.	32b-yJ)	.
(8.FL	.	(4An	.	(4e-y	.	2f	.
32En	.	.	.	.	.	.	.
32FJ)	.	.	.	.	.	.	.
(32G-L	.	4B-y)	.	4d-)	.	.	.
32F	.	.	.	.	.	.	.
32E-	.	.	.	.	.	.	.
32D-J	.	.	.	.	.	.	.
32CL	.	.	.	.	.	.	.
32BB-y	.	.	.	.	.	.	.
32D-y	.	.	.	.	.	.	.
32BB-yJ)	.	.	.	.	.	.	.
=13	=13	=13	=13	=13	=13	=13	=13
(4AAn	.	(4E-y	.	(4c	.	(8.g-L	.
.	.	.	.	.	.	32f	.
.	.	.	.	.	.	32e-yJ)	.
4GG)	.	4En)	.	4B-y)	.	(32e-yL	.
.	.	.	.	.	.	32d-	.
.	.	.	.	.	.	32c	.
.	.	.	.	.	.	32B-yJ	.
.	.	.	.	.	.	32AnL	.
.	.	.	.	.	.	32B-y	.
.	.	.	.	.	.	32A	.
.	.	.	.	.	.	32B-yJ)	.
8FF	.	16FL	.	8AnL	.	8cL	.
.	.	16f	.	.	.	.	.
8r	.	8.fJ	.	16r	.	16r	.
.	.	.	.	(16B-yJ	.	(16d-J	.
4r	.	.	.	8AL)	.	8cL)	.
.	.	16fL	.	.	.	.	.
.	.	[8fJ	.	16r	.	16r	.
.	.	.	.	(16b-yJ	.	(16dd-J	.
=14	=14	=14	=14	=14	=14	=14	=14
4r	cresc.	16fL]	cresc.	8anL)	.	8ccL)	.
.	.	16fJ	.	.	.	.	.
.	.	(4f	.	16r	.	16r	.
.	.	.	.	(16bnJ	.	(16ddnJ	.
16r	.	.	.	8cc)	.	8ee-y)	.
(16FL	.	.	.	.	.	.	.
16G	.	16enL	.	8r	.	8r	.
16AnJ)	.	16e-J)	.	.	.	.	.
(16B-yL	.	(16dL	.	4r	.	2r	.
16B-y	.	16d	.	.	.	.	.
16B-y	.	16d	.	.	.	.	.
16B-yJ	.	16dJ	.	.	.	.	.
16B-yL	.	16dL	.	(16fL	.	.	.
16B-y	.	16d	.	16f	.	.	.
16B-y	.	16d	.	16f	.	.	.
16B-yJ)	.	16dJ)	.	16fJ)	.	.	.
=15	=15	=15	=15	=15	=15	=15	=15
(16B-yL	.	(16d-L	.	(16fL	.	4.gg	.
16B-y	.	16d-y	.	16f	.	.	.
16B-y	.	16d-y	.	16f	.	.	.
16B-yJ)	.	16d-yJ)	.	16fJ)	.	.	.
(16B-yL	.	(16cL	.	(16enL	.	.	.
16B-y	.	16c	.	16e	.	.	.
16B-y	.	16c	.	16e	.	(32ffL	.
.	.	.	.	.	.	32een	.
16B-yJ)	.	16cJ)	.	16eJ)	.	32dd	.
.	.	.	.	.	.	32ccJ)	.
(16AnL	.	(16cL	.	(16fL	.	(8ccL	.
16A	.	16c	.	16f	.	.	.
16A	.	16c	.	16f	.	8ffJ)	.
16AJ)	.	16cJ)	.	16fJ)	.	.	.
(16A-L	.	(16cL	.	(16fL	.	4r	.
16A-y	.	16c	.	16f	.	.	.
16A-y	.	16c	.	16e-	.	.	.
16A-yJ)	.	16cJ)	.	16e-yJ)	.	.	.
!!LO:LB
=16	=16	=16	=16	=16	=16	=16	=16
(16A-yL	.	(16c-L	.	(16e-yL	.	4.ff	.
16A-y	.	16c-y	.	16e-y	.	.	.
16A-y	.	16c-y	.	16e-y	.	.	.
16A-yJ)	.	16c-yJ)	.	16e-yJ)	.	.	.
(16A-yL	.	(16B-yL	.	(16dL	.	.	.
16A-y	.	16B-y	.	16d	.	.	.
16A-y	.	16B-y	.	16d	.	(32ee-L	.
.	.	.	.	.	.	32dd	.
16A-yJ)	.	16B-yJ)	.	16dJ)	.	32cc	.
.	.	.	.	.	.	32b-yJ)	.
8G	.	8B-y	.	8e-y	.	(8b-yL	.
8r	.	8r	.	8r	.	16ee-yJ)	.
.	.	.	.	.	.	16r	.
8F	.	(16.AnL	.	(16.cL	.	(16.ee-yL	.
.	.	32B-y	.	32d	.	32dd	.
8r	.	16cJ)	.	16e-yJ)	.	16ccJ)	.
.	.	16r	.	16r	.	32r	.
.	.	.	.	.	.	32cc	.
=17	=17	=17	=17	=17	=17	=17	=17
8BB-y	.	(16.B-yL	.	(16.dL	.	(16.ffL	.
.	.	32c	.	32e-y	.	32ee-y	.
8r	.	16dJ)	.	16fJ)	.	16ddJ)	.
.	.	16r	.	16r	.	32r	.
.	.	.	.	.	.	32dd	.
16E-y	.	16c	.	16e-y	.	16gg	.
16r	.	16r	.	16r	.	16r	.
16F	.	16c	.	16e-y	.	16an	.
16r	.	16r	.	16r	.	16r	.
4BB-y	.	16B-yL	.	16dL	.	8b-y	.
.	.	(16b-y	.	(16dd	.	.	.
.	.	16b-y	.	16dd	.	8r	.
.	.	16b-yJ	.	16ddJ	.	.	.
4r	.	16b-yL	.	16ddL	.	(16ffL	.
.	.	16b-y	.	16dd	.	16ff	.
.	.	16b-y	.	16dd	.	16ff	.
.	.	16b-yJ)	.	16ddJ)	.	16ffJ)	.
=18	=18	=18	=18	=18	=18	=18	=18
4.g	.	(16b-yL	.	(16dd-L	.	(16ffL	.
.	.	16b-y	.	16dd-y	.	16ff	.
.	.	16b-y	.	16dd-y	.	16ff	.
.	.	16b-yJ)	.	16dd-yJ)	.	16ffJ)	.
.	.	(16b-yL	.	(16ccL	.	(16eenL	.
.	.	16b-y	.	16cc	.	16ee	.
(32fL	.	16b-y	.	16cc	.	16ee	.
32en	.	.	.	.	.	.	.
32d	.	16b-yJ)	.	16ccJ)	.	16eeJ)	.
32cJ)	.	.	.	.	.	.	.
(8cL	.	(16b-yL	.	(16ccL	.	(16ffL	.
.	.	16b-y	.	16cc	.	16ff	.
8fJ)	.	16an	.	16cc	.	16ff	.
.	.	16aJ)	.	16ccJ)	.	16ffJ)	.
4r	.	(16a-L	.	(16ccL	.	(16ffL	.
.	.	16a-y	.	16cc	.	16ff	.
.	.	16a-y	.	16cc	.	16ee-	.
.	.	16a-yJ)	.	16ccJ)	.	16ee-yJ)	.
!!LO:LB
=19	=19	=19	=19	=19	=19	=19	=19
4.f	.	(16a-yL	.	(16cc-L	.	(16ee-yL	.
.	.	16a-y	.	16cc-y	.	16ee-y	.
.	.	16a-y	.	16cc-y	.	16ee-y	.
.	.	16a-yJ)	.	16cc-yJ)	.	16ee-yJ)	.
.	.	(16a-yL	.	(16b-yL	.	(16ddL	.
.	.	16a-y	.	16b-y	.	16dd	.
(32e-L	.	16a-y	.	16b-y	.	16dd	.
32d	.	.	.	.	.	.	.
32c	.	16a-yJ)	.	16b-yJ)	.	16ddJ)	.
32B-yJ)	.	.	.	.	.	.	.
(8B-yL	.	(16a-yL	.	(16b-yL	.	8ee-y	.
.	.	16a-y	.	16b-y	.	.	.
16e-yJ)	.	16g	.	16b-y	.	8r	.
16r	.	16gJ)	.	16b-yJ)	.	.	.
8F	.	(16.cL	.	(16.e-yL	.	(32ccL	.
.	.	.	.	.	.	32dd	.
.	.	.	.	.	.	32ee-y	.
.	.	32B-y	.	32d	.	32eenJ	.
8r	.	16AnJ)	.	16cJ)	.	16ff)	.
.	.	32r	.	32r	.	16r	.
.	.	32A	.	32c	.	.	.
=20	=20	=20	=20	=20	=20	=20	=20
8BB-y	.	(16.dL	.	(16.fL	.	(32ffL	.
.	.	.	.	.	.	32gg	.
.	.	.	.	.	.	32aa-	.
.	.	32c	.	32e-y	.	32aanJ	.
8r	.	16B-yJ)	.	16dJ)	.	16bb-y)	.
.	.	32r	.	32r	.	16r	.
.	.	32B-y	.	32d	.	.	.
16E-y	.	16B-y	.	16g	.	4r	.
16r	.	16r	.	16r	.	.	.
16F	.	16An	.	16e-y	.	.	.
16r	.	16r	.	16r	.	.	.
8G	.	8B-y	.	8d	.	4r	.
8r	.	8r	.	8r	.	.	.
(32CL	.	8r	.	(16.ccL	.	(16.ee-yL	.
32D	.	.	.	.	.	.	.
32E-y	.	.	.	.	.	.	.
32EnJ	.	.	.	32b-y	.	32dd	.
16F)	.	(32fL	.	16anJ)	.	16ccJ)	.
.	.	32en	.	.	.	.	.
16r	.	32f	.	32r	.	32r	.
.	.	32e-J	.	32a	.	32cc	.
!!LO:LB
=21	=21	=21	=21	=21	=21	=21	=21
(32DL	.	16d)	.	(16.ddL	.	(16.ffL	.
32E-	.	.	.	.	.	.	.
32F	.	16r	.	.	.	.	.
32F#J	.	.	.	32cc	.	32ee-y	.
16G)	.	(32gL	.	16b-yJ)	.	16ddJ)	.
.	.	32f#	.	.	.	.	.
16r	.	32g	.	32r	.	32r	.
.	.	32fnJ	.	32b-y	.	32dd	.
16E-y	.	16e-y)	.	16b-y	.	16gg	.
16r	.	16r	.	16r	.	16r	.
16Fn	.	16c	.	16e-y	.	16an	.
16r	.	16r	.	16r	.	16r	.
16B-yL	.	32r	.	32r	.	(4b-y	.
.	.	(32B-yL	.	(32dL	.	.	.
16B-y	.	32d	.	32f	.	.	.
.	.	32B-yJ	.	32dJ	.	.	.
16B-y	.	32dL	.	32fL	.	.	.
.	.	32B-y	.	32d	.	.	.
16B-yJ	.	32d	.	32f	.	.	.
.	.	32B-yJ)	.	32dJ)	.	.	.
16GL	.	32r	.	32r	.	4bn)	.
.	.	(32GL	.	(32dL	.	.	.
16G	.	32d	.	32f	.	.	.
.	.	32GJ	.	32dJ	.	.	.
16G	.	32dL	.	32fL	.	.	.
.	.	32G	.	32d	.	.	.
16GJ	.	32d	.	32f	.	.	.
.	.	32GJ)	.	32dJ)	.	.	.
=22	=22	=22	=22	=22	=22	=22	=22
16E-yL	.	32r	.	32r	.	(16ccL	.
.	.	(32GL	.	(32e-yL	.	.	.
16E-y	.	32c	.	32g	.	16ee-y)	.
.	.	32GJ	.	32e-yJ	.	.	.
16E-y	.	32cL	.	32gL	.	[8ggJ	.
.	.	32G	.	32e-y	.	.	.
16E-yJ	.	32c	.	32g	.	.	.
.	.	32B-yJ)	.	32e-yJ)	.	.	.
16FL	.	32r	.	32r	.	(16ggL_	.
.	.	(32AnL	.	(32cL	.	.	.
16F	.	32c	.	32e-y	.	32ff	.
.	.	32AJ	.	32cJ	.	32ee-yJ	.
16F	.	32cL	.	32e-yL	.	32ddL	.
.	.	32A	.	32c	.	32cc	.
16FJ	.	32c	.	32e-y	.	32b-	.
.	.	32FJ)	.	32cJ)	.	32anJ)	.
16BB-yL	.	32r	.	32r	.	(4b-y	.
.	.	(<32FL	.	(32dL	.	.	.
16BB-y	.	32d	.	32f	.	.	.
.	.	32B-yJ	.	32dJ	.	.	.
16BB-y	.	32dL	.	32fL	.	.	.
.	.	32B-y	.	32d	.	.	.
16BB-yJ	.	32d	.	32f	.	.	.
.	.	32B-yJ)	.	32dJ)	.	.	.
16GGL	.	32r	.	32r	.	4bn)	.
.	.	(32GL	.	(32dL	.	.	.
16GG	.	32d	.	32f	.	.	.
.	.	32GJ	.	32dJ	.	.	.
16GG	.	32dL	.	32fL	.	.	.
.	.	32G	.	32d	.	.	.
16GGJ	.	32d	.	32f	.	.	.
.	.	32GJ)	.	32dJ)	.	.	.
=23	=23	=23	=23	=23	=23	=23	=23
16EE-yL	.	32r	.	32r	.	(24ccL	.
.	.	(32GL	.	(32e-yL	.	.	.
.	.	.	.	.	.	24ee-y	.
16EE-y	.	32c	.	32g	.	.	.
.	.	.	.	.	.	24gg)	.
.	.	32GJ	.	32e-yJ	.	.	.
16EE-y	.	32cL	.	32gL	.	[8ggJ	.
.	.	32G	.	32e-y	.	.	.
16EE-yJ	.	32c	.	32g	.	.	.
.	.	32B-yJ)	.	32e-yJ)	.	.	.
16FFL	.	32r	.	32r	.	(16ggL_	.
.	.	(32AnL	.	(32cL	.	.	.
16FF	.	32c	.	32e-y	.	32ff	.
.	.	32AJ	.	32cJ	.	32ee-yJ	.
16FF	.	32cL	.	32e-yL	.	32ddL	.
.	.	32A	.	32c	.	32cc	.
16FFJ	.	32c	.	32e-y	.	32b-	.
.	.	32FJ)	.	32cJ)	.	32anJ)	.
16BB-y	.	(32FL	.	(32dL	.	16b-y	.
.	.	32D	.	32f	.	.	.
16r	.	32F	.	32d	.	16r	.
.	.	32DJ)	.	32B-yJ)	.	.	.
16FF	.	16E-y	.	16An	.	(32ccL	.
.	.	.	.	.	.	32ee-y	.
16r	.	16r	.	16r	.	32dd	.
.	.	.	.	.	.	32ccJ)	.
16BB-y	.	32DL	.	(32B-yL	.	16b-y	.
.	.	(32D	.	32f	.	.	.
16r	.	32F	.	32d	.	16r	.
.	.	32DJ)	.	32B-yJ)	.	.	.
16FF	.	16E-y	.	16A	.	(32ccL	.
.	.	.	.	.	.	32ee-y	.
16r	.	16r	.	16r	.	32dd	.
.	.	.	.	.	.	32ccJ)	.
=24	=24	=24	=24	=24	=24	=24	=24
8BB-y	.	(32DL	cresc.	(32B-yL	cresc.	16b-y	crescendo
.	.	32C	.	32An	.	.	.
.	.	32E-y	.	32c	.	16r	.
.	.	32DJ	.	32B-yJ	.	.	.
8r	.	16F)	.	16d)	.	(32ddL	.
.	.	.	.	.	.	32cc	.
.	.	16r	.	16r	.	32ee-y	.
.	.	.	.	.	.	32ddJ	.
8BB-y	.	(<32B-yL	.	(32dL	.	16ff)	.
.	.	32An	.	32c	.	.	.
.	.	32c	.	32e-y	.	16r	.
.	.	32B-yJ	.	32dJ	.	.	.
8r	.	16d)	.	16f)	.	(32ffL	.
.	.	.	.	.	.	32een	.
.	.	16r	.	16r	.	32gg	.
.	.	.	.	.	.	32ffJ)	.
2BB-y	.	(4d	.	(4B-y	.	(32aa-L	.
.	.	.	.	.	.	32gg	.
.	.	.	.	.	.	32bb-y	.
.	.	.	.	.	.	32aa-yJ	.
.	.	.	.	.	.	32ggL	.
.	.	.	.	.	.	32ff	.
.	.	.	.	.	.	32ee-	.
.	.	.	.	.	.	32ddJ	.
.	.	8e-yL	.	8cL	.	32ccL	.
.	.	.	.	.	.	32b-y	.
.	.	.	.	.	.	32an	.
.	.	.	.	.	.	32b-yJ	.
.	.	8fJ)	.	8dJ)	.	32aL	.
.	.	.	.	.	.	32b-y	.
.	.	.	.	.	.	32cc	.
.	.	.	.	.	.	32a-J)	.
!!LO:LB
=25	=25	=25	=25	=25	=25	=25	=25
(4E-y	.	[4B-y	.	(4e-y	.	(4g	.
8DL)	.	8B-y_	.	8fL)	.	8a-yL)	.
16.r	.	8r	.	16.r	.	16.r	.
32E-yJ	.	.	.	32e-yJ	.	32gJ	.
8BB-yL	.	8A-L)	.	8dL)	.	8fL)	.
8EE-yJ	.	8GJ	.	8e-yJ	.	8e-yJ	.
4r	.	4r	.	4r	.	8r	.
.	.	.	.	.	.	(8G	.
=26	=26	=26	=26	=26	=26	=26	=26
2r	.	2r	.	2r	.	8B-yL	cresc.
.	.	.	.	.	.	8e-y	.
.	.	.	.	.	.	8g	.
.	.	.	.	.	.	8b-yJ)	.
4C	.	4E-y	.	4G	.	4ee-y	.
4D	.	4F	.	4B-y	.	4b-y	.
=27	=27	=27	=27	=27	=27	=27	=27
8E-yL	cresc.	8B-yL	.	16.e-yLT	.	16.gLT	cresc.
.	.	.	.	32f	.	32a-y	.
8EE-yJ	.	8e-yJ	.	8gJ	.	8b-yJ	.
8r	.	4r	.	4r	.	8r	.
(8GG	.	.	.	.	.	(8e-y	.
8BB-yL	.	4r	.	4r	.	8gL	.
8E-y	.	.	.	.	.	8b-y	.
8G	.	8r	.	8r	.	8ee-y	.
8B-yJ)	.	(8b-y	.	(8dd-	.	8ggJ)	.
=28	=28	=28	=28	=28	=28	=28	=28
8d-L	.	8gL	cresc.	8b-yL	cresc.	16.bb-yLT	cresc.
.	.	.	.	.	.	32ccc	.
8D-J	.	8en	.	8g	.	8ddd-J	.
4r	.	8d-	.	8en	.	8r	.
.	.	8B-yJ)	.	8d-J)	.	(8en	.
8CL	.	(8GL	.	16.eenLT	.	8gL	.
.	.	.	.	32ff	.	.	.
8CCJ	.	8EnJ)	.	8ggJ	.	8b-y	.
4r	.	4r	.	4r	.	8een	.
.	.	.	.	.	.	8ggJ)	.
!!LO:LB
=29	=29	=29	=29	=29	=29	=29	=29
8F	.	16r	.	16r	.	[4ccc	.
.	.	16fL	.	16a-yL	.	.	.
8r	.	16f	.	16a-y	.	.	.
.	.	16fJ	.	16a-yJ	.	.	.
8F	.	16r	.	16r	.	(16cccL_	.
.	.	16enL	.	16gL	.	32bb-y	.
.	.	.	.	.	.	32aan	.
8r	.	16e	.	16g	.	32bb-y	.
.	.	.	.	.	.	32ccc	.
.	.	16eJ	.	16gJ	.	32ddd-	.
.	.	.	.	.	.	32cccJ)	.
8F	.	16r	.	16r	.	(8cccL	.
.	.	16fL	.	(16a-yL	.	.	.
8r	.	16f	.	16cc)	.	8.aa-J)	.
.	.	16fJ	.	16ccJ	.	.	.
8BB-y	.	16r	.	16r	.	.	.
.	.	16d-L	.	(16b-yL	.	(16ggL	.
8r	.	16d-y	.	16g)	.	8bb-yJ)	.
.	.	16d-yJ	.	16gJ	.	.	.
=30	=30	=30	=30	=30	=30	=30	=30
8C	cresc.	16r	cresc.	16r	cresc.	16bb-y]	cresc.
.	.	16cL	.	(16a-yL	.	(16ffL	.
8r	.	16c	.	16f)	.	8.aa-yJ)	.
.	.	16cJ	.	16fJ	.	.	.
8C	.	16r	.	16r	.	.	.
.	.	16B-yL	.	(16gL	.	(16eenL	.
8r	.	16B-y	.	16en)	.	8ggJ)	.
.	.	16B-yJ	.	16eJ	.	.	.
(4FF	.	16r	.	16r	.	(32ggL_	.
.	.	.	.	.	.	32bb-y	.
.	.	(16B-yL	.	(16eL	.	32aa-y	.
.	.	.	.	.	.	32gg	.
.	.	16A-y)	.	16f	.	8ffJ)	.
.	.	[16A-yJ	.	16e-J	.	.	.
4BB-y)	.	(16A-yL_	.	16dL	.	32ffL]	.
.	.	.	.	.	.	(32ee-	.
.	.	16F	.	16a-y	.	32dd	.
.	.	.	.	.	.	32ee-yJ	.
.	.	16D	.	16f	.	32ffL	.
.	.	.	.	.	.	32gg	.
.	.	16FJ)	.	16dJ)	.	32aa-y	.
.	.	.	.	.	.	32ffJ)	.
!!LO:LB
=31	=31	=31	=31	=31	=31	=31	=31
8EE-y	.	16r	.	16r	.	[4bb-y	.
.	.	16GL	.	16e-yL	.	.	.
8r	.	16G	.	16e-y	.	.	.
.	.	16GJ	.	16e-yJ	.	.	.
8EE-y	.	16r	.	16r	.	(32bb-yL_	.
.	.	.	.	.	.	32aa-y	.
.	.	16FL	.	16dL	.	32gg	.
.	.	.	.	.	.	32ffJ	.
8r	.	16F	.	16d	.	32ggL	.
.	.	.	.	.	.	32aa-y	.
.	.	16FJ	.	16dJ	.	32bb-y	.
.	.	.	.	.	.	32cccJ)	.
8EE-y	.	16r	.	16r	.	(16.bb-yL	.
.	.	16GL	.	16e-yL	.	.	.
.	.	.	.	.	.	32gg)	.
8r	.	16G	.	16e-y	.	8bb-yJ	.
.	.	16GJ	.	16e-yJ	.	.	.
(4A-y	.	16r	.	16r	.	24r	.
.	.	.	.	.	.	(24ff'L	.
.	.	(16a-yL	.	16ccL	.	.	.
.	.	.	.	.	.	24gg'J	.
.	.	16f)	.	(16cc	.	24aa-y'L	.
.	.	.	.	.	.	24bb-y'	.
.	.	16fJ	.	16a-yJ)	.	.	.
.	.	.	.	.	.	24ccc'J)	.
=32	=32	=32	=32	=32	=32	=32	=32
4B-y	cresc.	16r	cresc.	16r	cresc.	24r	cresc.
.	.	.	.	.	.	(24ee-y'L	.
.	.	16e-yL	.	(16gL	.	.	.
.	.	.	.	.	.	24ff'J	.
.	.	(16e-y	.	16b-y)	.	24gg'L	.
.	.	.	.	.	.	24aa-y'	.
.	.	16gJ)	.	16b-yJ	.	.	.
.	.	.	.	.	.	24bb-y'J)	.
4Bn	.	16r	.	16r	.	24r	.
.	.	.	.	.	.	(24aa-y'L	.
.	.	16dL	.	(16fL	.	.	.
.	.	.	.	.	.	24gg'J	.
.	.	(16d	.	16a-y)	.	24ff'L	.
.	.	.	.	.	.	24ee-y'	.
.	.	16fJ)	.	16a-yJ	.	.	.
.	.	.	.	.	.	24dd'J)	.
4c	.	16r	.	16r	.	(16.ffL	.
.	.	16g-L	.	16anL	.	.	.
.	.	.	.	.	.	32ee-y)	.
.	.	16g-y	.	16a	.	(8.ee-yJ	.
.	.	16g-yJ	.	16aJ	.	.	.
4B-)	.	16r	.	16r	.	.	.
.	.	16g-yL	.	16b-yL	.	16eee-yL)	.
.	.	16g-y	.	16b-y	.	(16eee-y'	.
.	.	16g-yJ	.	16b-yJ	.	16eee-y'J)	.
=33	=33	=33	=33	=33	=33	=33	=33
(8AnL	.	16r	.	16r	.	[8eee-yL	.
.	.	16g-L	.	(16ccL	.	.	.
8B-yJ	.	16g-y	.	16b-y)	.	32eee-y]	.
.	.	.	.	.	.	(32ddd-	.
.	.	16g-yJ	.	16b-yJ	.	32ccc-	.
.	.	.	.	.	.	32bb-yJ	.
4c-)	.	16r	.	16r	.	16aanL)	.
.	.	(16e-yL	.	(16gg-L	.	(16aa'	.
.	.	16d	.	16ff	.	16aa'	.
.	.	16e-yJ)	.	16ee-yJ)	.	16aa'J)	.
(8.B-yL	.	(4f	.	(4dd	.	[2bb-y	.
32c-y	.	.	.	.	.	.	.
32B-yJ)	.	.	.	.	.	.	.
(32AL	.	4g-y)	.	4ee-y)	.	.	.
32G-	.	.	.	.	.	.	.
32F	.	.	.	.	.	.	.
32E-yJ	.	.	.	.	.	.	.
32DL	.	.	.	.	.	.	.
32E-y	.	.	.	.	.	.	.
32G-y	.	.	.	.	.	.	.
32E-yJ)	.	.	.	.	.	.	.
=34	=34	=34	=34	=34	=34	=34	=34
(4D	.	(4a-y	.	(4ff	.	(8.bb-yL_	.
.	.	.	.	.	.	32aan	.
.	.	.	.	.	.	32bb-yJ)	.
4E-y)	.	4g-)	.	4ee-y)	.	(32ccc-L	.
.	.	.	.	.	.	32bb-y	.
.	.	.	.	.	.	32aa-	.
.	.	.	.	.	.	32gg-J	.
.	.	.	.	.	.	32ffL	.
.	.	.	.	.	.	32ee-y	.
.	.	.	.	.	.	32gg-y	.
.	.	.	.	.	.	32ee-yJ)	.
(8.B-yL	.	(4d	.	(4a-y	.	2b-y	.
32An	.	.	.	.	.	.	.
32B-yJ)	.	.	.	.	.	.	.
(32c-L	.	4e-y)	.	4g-)	.	.	.
32B-y	.	.	.	.	.	.	.
32A-	.	.	.	.	.	.	.
32G-J	.	.	.	.	.	.	.
32FL	.	.	.	.	.	.	.
32E-y	.	.	.	.	.	.	.
32G-y	.	.	.	.	.	.	.
32E-yJ)	.	.	.	.	.	.	.
!!LO:LB
=35	=35	=35	=35	=35	=35	=35	=35
(4D	.	4A-y	.	(4f	.	(8.cc-L	.
.	.	.	.	.	.	32b-y	.
.	.	.	.	.	.	32a-yJ)	.
4C)	.	(8AnL	.	4e-y)	.	(32a-yL	.
.	.	.	.	.	.	32g-	.
.	.	.	.	.	.	32f	.
.	.	.	.	.	.	32e-yJ	.
.	.	8cJ)	.	.	.	32dL	.
.	.	.	.	.	.	32e-y	.
.	.	.	.	.	.	32d	.
.	.	.	.	.	.	32e-yJ)	.
16BB-yL	.	8F	.	8dL	.	8fL	.
16BB-y	.	.	.	.	.	.	.
8BB-yJ	.	8r	.	16r	.	16r	.
.	.	.	.	(16e-yJ	.	(16g-J	.
4r	.	16r	.	8dL)	.	8fL)	.
.	.	16B-yL	.	.	.	.	.
.	.	[8B-yJ	.	16r	.	16r	.
.	.	.	.	(16ee-yJ	.	(16gg-J	.
=36	=36	=36	=36	=36	=36	=36	=36
4r	cresc.	16B-yL]	cresc.	8ddL)	.	8ffL)	.
.	.	16b-yJ	.	.	.	.	.
.	.	(4b-y	.	16r	.	16r	.
.	.	.	.	(16eenJ	.	(16ggnJ	.
16r	.	.	.	8ff)	.	8aa-y)	.
(16B-yL	.	.	.	.	.	.	.
16c	.	16anL	.	8r	.	8r	.
16dJ)	.	16a-J)	.	.	.	.	.
(16e-yL	.	(16gL	.	4r	.	2r	.
16e-y	.	16g	.	.	.	.	.
16e-y	.	16g	.	.	.	.	.
16e-yJ)	.	16gJ)	.	.	.	.	.
(16e-yL	.	(16gL	.	(16b-yL	.	.	.
16e-y	.	16g	.	16b-y	.	.	.
16e-y	.	16g	.	16b-y	.	.	.
16e-yJ)	.	16gJ)	.	16b-yJ)	.	.	.
=37	=37	=37	=37	=37	=37	=37	=37
(16e-yL	.	(16g-L	.	(16b-yL	.	4.ccc	.
16e-y	.	16g-y	.	16b-y	.	.	.
16e-y	.	16g-y	.	16b-y	.	.	.
16e-yJ)	.	16g-yJ)	.	16b-yJ)	.	.	.
(16e-yL	.	(16fL	.	(16anL	.	.	.
16e-y	.	16f	.	16a	.	.	.
16e-y	.	16f	.	16a	.	(32bb-yL	.
.	.	.	.	.	.	32aan	.
16e-yJ)	.	16fJ)	.	16aJ)	.	32gg	.
.	.	.	.	.	.	32ffJ)	.
(16dL	.	(16fL	.	(16b-yL	.	(8ffL	.
16d	.	16f	.	16b-y	.	.	.
16d	.	16f	.	16b-y	.	8bb-yJ)	.
16dJ)	.	16fJ)	.	16b-yJ)	.	.	.
(16d-L	.	(16fL	.	(16b-yL	.	4r	.
16d-y	.	16f	.	16b-y	.	.	.
16d-y	.	16f	.	16a-	.	.	.
16d-yJ)	.	16fJ)	.	16a-yJ)	.	.	.
!!LO:LB
=38	=38	=38	=38	=38	=38	=38	=38
(16d-L	.	(16f-L	.	(16a-yL	.	4.bb-y	.
16d-y	.	16f-y	.	16a-y	.	.	.
16d-y	.	16f-y	.	16a-y	.	.	.
16d-yJ)	.	16f-yJ)	.	16a-yJ)	.	.	.
(16d-yL	.	(16e-yL	.	(16gL	.	.	.
16d-y	.	16e-y	.	16g	.	.	.
16d-y	.	16e-y	.	16g	.	(32aa-L	.
.	.	.	.	.	.	32gg	.
16d-yJ)	.	16e-yJ)	.	16gJ)	.	32ff	.
.	.	.	.	.	.	32ee-yJ)	.
8c	.	8e-y	.	8a-y	.	(8ee-yL	.
8r	.	8r	.	8r	.	16aa-yJ)	.
.	.	.	.	.	.	16r	.
8B-y	.	(16.dL	.	(16.fL	.	(16.aa-yL	.
.	.	32e-y	.	32g	.	32gg	.
8r	.	16fJ)	.	16a-yJ)	.	16ffJ)	.
.	.	16r	.	16r	.	32r	.
.	.	.	.	.	.	32ff	.
=39	=39	=39	=39	=39	=39	=39	=39
8E-y	.	(16.e-yL	.	(16.gL	.	(16.bb-yL	.
.	.	32f	.	32a-y	.	32aa-y	.
8r	.	16gJ)	.	16b-yJ)	.	16ggJ)	.
.	.	16r	.	16r	.	32r	.
.	.	.	.	.	.	32gg	.
16A-y	.	16f	.	16a-y	.	16ccc	.
16r	.	16r	.	16r	.	16r	.
16B-y	.	16f	.	16a-y	.	16dd	.
16r	.	16r	.	16r	.	16r	.
4E-y	.	(16e-yL	.	(16gL	.	8ee-y	.
.	.	16e-y	.	16g	.	.	.
.	.	16e-y	.	16g	.	8r	.
.	.	16e-yJ)	.	16gJ)	.	.	.
4r	.	(16e-yL	.	(16gL	.	(16b-yL	.
.	.	16e-y	.	16g	.	16b-y	.
.	.	16e-y	.	16g	.	16b-y	.
.	.	16e-yJ)	.	16gJ)	.	16b-yJ)	.
=40	=40	=40	=40	=40	=40	=40	=40
4.c	.	(16e-yL	.	(16g-L	.	(16b-yL	.
.	.	16e-y	.	16g-y	.	16b-y	.
.	.	16e-y	.	16g-y	.	16b-y	.
.	.	16e-yJ)	.	16g-yJ)	.	16b-yJ)	.
.	.	(16e-yL	.	(16fL	.	(16anL	.
.	.	16e-y	.	16f	.	16a	.
(32B-yL	.	16e-y	.	16f	.	16a	.
32An	.	.	.	.	.	.	.
32G	.	16e-yJ)	.	16fJ)	.	16aJ)	.
32FJ)	.	.	.	.	.	.	.
(8FL	.	(16e-yL	.	(16fL	.	(16b-yL	.
.	.	16e-y	.	16f	.	16b-y	.
8B-yJ)	.	16d	.	16f	.	16b-y	.
.	.	16dJ)	.	16fJ)	.	16b-yJ)	.
4r	.	(16d-L	.	(16fL	.	(16b-yL	.
.	.	16d-y	.	16f	.	16b-y	.
.	.	16d-y	.	16f	.	16a-	.
.	.	16d-yJ)	.	16fJ)	.	16a-yJ)	.
!!LO:LB
=41	=41	=41	=41	=41	=41	=41	=41
4.B-y	.	(16d-L	.	(16f-L	.	(16a-yL	.
.	.	16d-y	.	16f-y	.	16a-y	.
.	.	16d-y	.	16f-y	.	16a-y	.
.	.	16d-yJ)	.	16f-yJ)	.	16a-yJ)	.
.	.	(16d-yL	.	(16e-yL	.	(16gL	.
.	.	16d-y	.	16e-y	.	16g	.
(32A-L	.	16d-y	.	16e-y	.	16g	.
32G	.	.	.	.	.	.	.
32F	.	16d-yJ)	.	16e-yJ)	.	16gJ)	.
32E-yJ)	.	.	.	.	.	.	.
(8E-yL	.	(16d-yL	.	(16e-yL	.	8a-y	.
.	.	16d-y	.	16e-y	.	.	.
16A-yJ)	.	16c	.	16e-y	.	8r	.
16r	.	16cJ)	.	16e-yJ)	.	.	.
8BB-y	.	(16.fL	.	(16.a-yL	.	(32ffL	.
.	.	.	.	.	.	32gg	.
.	.	.	.	.	.	32aa-y	.
.	.	32e-y	.	32g	.	32aanJ	.
8r	.	16dnJ)	.	16fJ)	.	16bb-y)	.
.	.	32r	.	32r	.	16r	.
.	.	32d	.	32f	.	.	.
=42	=42	=42	=42	=42	=42	=42	=42
8EE-y	.	(16.gL	.	(16.b-yL	.	(32b-yL	.
.	.	.	.	.	.	32cc	.
.	.	.	.	.	.	32dd-	.
.	.	32f	.	32a-y	.	32ddnJ	.
8r	.	16e-yJ)	.	16gJ)	.	16ee-y)	.
.	.	32r	.	32r	.	16r	.
.	.	32e-y	.	32g	.	.	.
16AA-y	.	16e-y	.	16cc	.	4r	.
16r	.	16r	.	16r	.	.	.
16BB-y	.	16d	.	16a-y	.	.	.
16r	.	16r	.	16r	.	.	.
8C	.	8e-y	.	8g	.	4r	.
8r	.	8r	.	8r	.	.	.
(32FL	.	8r	.	(16.ffL	.	(16.aa-yL	.
32G	.	.	.	.	.	.	.
32A-y	.	.	.	.	.	.	.
32AnJ	.	.	.	32ee-y	.	32gg	.
16B-y)	.	(32b-yL	.	16ddJ)	.	16ffJ)	.
.	.	32an	.	.	.	.	.
16r	.	32b-y	.	32r	.	32r	.
.	.	32a-J	.	32dd	.	32ff	.
=43	=43	=43	=43	=43	=43	=43	=43
(32GL	.	16g)	.	(16.ggL	.	(16.bb-yL	.
32A-	.	.	.	.	.	.	.
32B-y	.	16r	.	.	.	.	.
32BnJ	.	.	.	32ff	.	32aa-y	.
16c)	.	(32ccL	.	16ee-yJ)	.	16ggJ)	.
.	.	32bn	.	.	.	.	.
16r	.	32cc	.	32r	.	32r	.
.	.	32b-J	.	32ee-y	.	32gg	.
16A-y	.	16a-y)	.	16ee-y	.	16ccc	.
16r	.	16r	.	16r	.	16r	.
16B-	.	16f	.	16a-y	.	16dd	.
16r	.	16r	.	16r	.	16r	.
16E-yL	.	32r	.	32r	.	(4ee-y	.
.	.	(32e-yL	.	(32gL	.	.	.
16E-y	.	32g	.	32b-y	.	.	.
.	.	32e-yJ	.	32gJ	.	.	.
16E-y	.	32gL	.	32b-yL	.	.	.
.	.	32e-y	.	32g	.	.	.
16E-yJ	.	32g	.	32b-y	.	.	.
.	.	32e-yJ)	.	32gJ)	.	.	.
16CL	.	32r	.	32r	.	4een)	.
.	.	(32B-yL	.	(32gL	.	.	.
16C	.	32g	.	32b-y	.	.	.
.	.	32B-yJ	.	32gJ	.	.	.
16C	.	32gL	.	32b-yL	.	.	.
.	.	32B-y	.	32g	.	.	.
16CJ	.	32g	.	32b-y	.	.	.
.	.	32B-yJ)	.	32gJ)	.	.	.
=44	=44	=44	=44	=44	=44	=44	=44
16AA-yL	.	32r	.	32r	.	(16ffL	cresc.
.	.	(32cL	.	(32a-yL	.	.	.
16AA-y	.	32f	.	32cc	.	16aa-y)	.
.	.	32cJ	.	32a-yJ	.	.	.
16AA-y	.	32fL	.	32ccL	.	[8cccJ	.
.	.	32c	.	32a-y	.	.	.
16AA-yJ	.	32f	.	32cc	.	.	.
.	.	32cJ)	.	32a-yJ)	.	.	.
16BB-yL	.	32r	.	32r	.	(16cccL_	.
.	.	(32dL	.	(32fL	.	.	.
16BB-y	.	32f	.	32a-y	.	32bb-y	.
.	.	32dJ	.	32fJ	.	32aa-yJ	.
(16BB-y	.	32fL	.	32a-yL	.	32ggL	.
.	.	32d	.	32f	.	32ff	.
16BBnJ)	.	32f	.	32a-y	.	32ee-	.
.	.	32A-yJ)	.	32fJ)	.	32ddJ)	.
16CL	.	32r	.	32r	.	8ee-y	.
.	.	(32GL	.	(32e-yL	.	.	.
16C	.	32e-y	.	32g	.	.	.
.	.	32GJ	.	32e-yJ	.	.	.
16C	.	32e-yL	.	32gL	.	(4e-y	.
.	.	32G	.	32e-y	.	.	.
16CJ	.	32e-y	.	32g	.	.	.
.	.	32GJ)	.	32e-yJ)	.	.	.
16BB-L	.	32r	.	32r	.	.	.
.	.	(32GL	.	(32B-yL	.	.	.
16BB-y	.	32B-y	.	32d-	.	.	.
.	.	32GJ	.	32B-yJ	.	.	.
16BB-y	.	32B-yL	.	32d-yL	.	8en)	.
.	.	32G	.	32B-y	.	.	.
16BB-yJ	.	32B-y	.	32d-y	.	.	.
.	.	32GJ)	.	32B-yJ)	.	.	.
!!LO:LB
=45	=45	=45	=45	=45	=45	=45	=45
16AA-yL	.	32r	.	32r	.	(24fL	.
.	.	(32A-yL	.	(32cL	.	.	.
.	.	.	.	.	.	24a-y	.
16AA-y	.	32c	.	32f	.	.	.
.	.	.	.	.	.	24cc)	.
.	.	32A-yJ	.	32cJ	.	.	.
16AA-y	.	32cL	.	32fL	.	[8ccJ	.
.	.	32A-y	.	32c	.	.	.
16AA-yJ	.	32c	.	32f	.	.	.
.	.	32A-yJ)	.	32cJ)	.	.	.
16BB-yL	.	32r	.	32r	.	(16ccL_	.
.	.	(32FL	.	(32dnL	.	.	.
16BB-y	.	32A-y	.	32f	.	32b-y	.
.	.	32FJ	.	32dJ	.	32a-yJ	.
16BB-y	.	32DL	.	32B-yL	.	32gL	.
.	.	32F	.	32A-y	.	32f	.
16BB-yJ	.	32A-y	.	32B-y	.	32e-	.
.	.	32FJ)	.	32A-yJ)	.	32dJ)	.
16EE-y	.	(32E-yL	.	(32GL	.	16e-y	.
.	.	32G	.	32e-y	.	.	.
16r	.	32B-y	.	32g	.	16r	.
.	.	32GJ)	.	32e-yJ)	.	.	.
16BB-y	.	16A-y	.	16d	.	(32fL	.
.	.	.	.	.	.	32a-y	.
16r	.	16r	.	16r	.	32g	.
.	.	.	.	.	.	32fJ)	.
16E-y	.	(32GL	.	(32e-yL	.	16e-y	.
.	.	32B-y	.	32g	.	.	.
16r	.	32e-y	.	32b-y	.	16r	.
.	.	32gJ)	.	32ee-yJ)	.	.	.
16B-y	.	16a-y	.	16dd	.	(32ffL	.
.	.	.	.	.	.	32aa-y	.
16r	.	16r	.	16r	.	32gg	.
.	.	.	.	.	.	32ffJ)	.
=46	=46	=46	=46	=46	=46	=46	=46
!!Error: measure 46, staff 1 is underfilled: adding token 8ryy at end of measure to complete its duration.
8E-y	.	(32GL	.	(32e-yL	.	16ee-y	.
.	.	32F	.	32d	.	.	.
.	.	32A-y	.	32f	.	16r	.
.	.	32GJ	.	32e-yJ	.	.	.
8r	.	16B-y)	.	16g)	.	(32ee-yL	.
.	.	.	.	.	.	32dd	.
.	.	16r	.	16r	.	32ff	.
.	.	.	.	.	.	32ee-yJ	.
8E-y	.	(32e-yL	.	(32gL	.	16gg)	.
.	.	32d	.	32f	.	.	.
.	.	32f	.	32a-y	.	16r	.
.	.	32e-yJ	.	32gJ	.	.	.
8r	.	16g)	.	16b-y)	.	(32ggL	.
.	.	.	.	.	.	32ff	.
.	.	16r	.	16r	.	32aa-y	.
.	.	.	.	.	.	32ggJ	.
8E-y	.	(32gL	.	(32b-yL	.	16bb-y)	.
.	.	32f	.	32a-y	.	.	.
.	.	32a-y	.	32cc	.	16r	.
.	.	32gJ	.	32b-yJ	.	.	.
8r	.	16b-y)	.	16dd-)	.	((32bb-yL	.
.	.	.	.	.	.	32aa-y	.
.	.	16r	.	16r	.	32ccc	.
.	.	.	.	.	.	32bb-yJ	.
4r	.	4r	.	4r	.	8r	.
.	.	.	.	.	.	8ryy	.
!!LO:LB
=47	=47	=47	=47	=47	=47	=47	=47
8r	.	8r	.	8r	.	(4.cc	.
(8BB-y	.	(8G	.	(8en	.	.	.
4AA-y)	.	4A-y)	.	4f)	.	.	.
.	.	.	.	.	.	8cc-)	.
8r	.	8r	.	8r	.	[4b-y	.
(8AA-y	.	(8FL	.	(8dL	.	.	.
4GG)	.	8G	.	8e-	.	(16b-yL_	.
.	.	.	.	.	.	16an	.
.	.	8E-yJ)	.	8B-yJ)	.	16a-	.
.	.	.	.	.	.	16gJ)	.
=48	=48	=48	=48	=48	=48	=48	=48
8AA-y	.	8C	.	8c	.	(8f	.
8r	.	8r	.	8r	.	4a-y	.
8BB-y	.	8F	.	8A-y	.	.	.
8r	.	8r	.	8r	.	8d)	.
4C	.	4E-y	.	4G	.	8e-yL	.
.	.	.	.	.	.	16r	.
.	.	.	.	.	.	(16ggJ	.
4r	.	4r	.	4r	.	16aa-yL	.
.	.	.	.	.	.	16aan	.
.	.	.	.	.	.	16bb-y	.
.	.	.	.	.	.	16bbnJ)	.
=49	=49	=49	=49	=49	=49	=49	=49
2r	.	16r	.	16r	.	[4ccc	.
.	.	(16cL	.	(16enL	.	.	.
.	.	16d	.	16f	.	.	.
.	.	16enJ	.	16gJ	.	.	.
.	.	8f)	.	8a-y)	.	16cccL]	.
.	.	.	.	.	.	(16gg	.
.	.	8r	.	8r	.	16aa-	.
.	.	.	.	.	.	16aanJ	.
16r	.	16r	.	16r	.	4bb-)	.
(16B-yL	.	(16dL	.	(16b-yL	.	.	.
16An	.	16e-	.	16cc	.	.	.
16A-J	.	16fJ	.	16ddJ	.	.	.
4G)	.	8gL	.	8ee-yL	.	(16bb-yL_	.
.	.	.	.	.	.	16aan	.
.	.	8e-yJ)	.	8b-yJ)	.	16aa-	.
.	.	.	.	.	.	16ggJ)	.
!!LO:LB
=50	=50	=50	=50	=50	=50	=50	=50
8A-y	.	8c	.	8cc	.	(8ff	.
8r	.	8r	.	8r	.	4aa-y	.
8B-y	.	8f	.	8a-y	.	.	.
8r	.	8r	.	8r	.	8dd)	.
4E-y	.	16e-yL	.	8gL	.	8ee-yL	.
.	.	(16B-y	.	.	.	.	.
.	.	16e-y	.	16r	.	16r	.
.	.	16gJ)	.	(16b-yJ	.	(16ee-yJ	.
8r	.	[4b-y	.	16ee-yL	.	16ggL	.
.	.	.	.	16gg	.	16bb-y	.
8B-y	.	.	.	16ff	.	16aa-y	.
.	.	.	.	16ddJ)	.	16ffJ)	.
=51	=51	=51	=51	=51	=51	=51	=51
4e-y	.	16b-yL]	.	8ee-yL	.	8ee-yL	.
.	.	(16b-y	.	.	.	.	.
.	.	16g	.	16r	.	16r	.
.	.	16e-yJ)	.	(16GJ	.	(16e-yJ	.
8r	.	(8.B-yL	.	16e-yL	.	16gL	.
.	.	.	.	16g	.	16b-y	.
8BB-y	.	.	.	16f	.	16a-y	.
.	.	16A-yJ)	.	16dJ)	.	16fJ)	.
4E-y	.	4G	.	4e-y	.	8e-yL	.
.	.	.	.	.	.	16r	.
.	.	.	.	.	.	(16GJ	.
4r	.	4r	.	4r	.	16B-yL	.
.	.	.	.	.	.	16e-y	.
.	.	.	.	.	.	16g	.
.	.	.	.	.	.	16b-yJ)	.
=52	=52	=52	=52	=52	=52	=52	=52
4CC	.	4E-y	.	4G	.	4ee-y	.
4DD	.	4F	.	4B-y	.	4b-y	.
8EE-yL	.	8B-yL	.	16.e-yLT	.	16.gLT	.
.	.	.	.	32f	.	32a-y	.
8E-yJ	.	8e-yJ	.	8gJ	.	8b-yJ	.
4r	.	4r	.	4r	.	4r	.
=53	=53	=53	=53	=53	=53	=53	=53
!	!	!LO:TX:a:t=staccato	!	!LO:TX:a:t=staccato	!	!LO:TX:a:t=staccato	!
8BB-yL	.	8A-yL)	.	8dL)	.	8fL)	.
.	.	(<16qB-y	.	.	.	.	.
.	.	.	.	(<16qe-y	.	.	.
.	.	.	.	.	.	(<16qg	.
8BB-y	.	8A-y)	.	8d)	.	8f)	.
.	.	(<16qB-y	.	.	.	.	.
.	.	.	.	(<16qe-y	.	.	.
.	.	.	.	.	.	(<16qg	.
8BB-y	.	8A-y)	.	8d)	.	8f)	.
(8BB-yJ	.	(8A-yJ	.	(8dJ	.	(8b-yJ	.
8E-y)	.	8G)	.	8e-y)	.	8e-y)	.
8r	.	8r	.	8r	.	8r	.
4r	.	4r	.	4r	.	4r	.
==	==	==	==	==	==	==	==
*-	*-	*-	*-	*-	*-	*-	*-
!!!RDF**kern: < = below
